X:342
T: AUS DEINEN BLAUEN AUGEN STRAHLET LIEBE
N: B0403A
O: Europa, Mitteleuropa, Deutschland, Rheinland
R: Liebes - Lied, Liebes - Lust
M: 4/4
L: 1/16
K: Bb
D2D2E2 | F6F2d2c2B2D2 | F2E2E6
E2E2E2 | c6B2A2G2F2E2 | E2D2D6
B2B2B2 | B2G2G4z2B2A2G2 | G2F2F4z2
B2B2d2 | c3de3cA2A2G2A2 | B8z2
B2B2B2 | B2G2G4z2B2A2G2 | G2F2F4z2
B2B2d2 | c3de3cA2A2G2A2 | B8z2

